X:5
T:Jack in the Box. Ru1.005
%%VWML:RutherfordVol1-2248-p3-0p3
Z:Transcription by Village Music Project, Steve Mansfield July 2015
F:http://www.village-music-project.org.uk/
F:http://www.vwml.org/record/RutherfordVol1/2248/p3
L:1/8
W:Foot it all four and right Hands across half round .|
W:Foot it and Left Hands across back again :| The first
W:Man Sett to the 2d Woman & turn .|. First Wo. does the
W:same with the 2d man :|. Cross over half Figure
W:right Hand & Left :|
Q:2/4=60
K:G
|:G/A/B/c/ dB | e2 dB | cBAG | A/G/F/E/ D2 |
G/A/B/c/ dB | e2 dg | f2 e/d/^c/e/ | A^c d2 :|
|: d/c/B/c/ dB | c/B/A/B/ cA | B/A/G/A/ BG | A/G/F/E/ FD |
G/A/B/c/ dg | e2 dc | BA/G/ AG/F/ | G4 :|
BBcc | ^ccdd | ecgB | A/G/F/E/ D2 |
Bd-dB | Bg-gB | BA/G/ AG/F/ | G4 :|
T:Catch her if you can. Ru1.006
B:Rutherford's Country Dances Vol 1, 1756
Z:village music project, Steve Mansfield July 2015
M:6/8
L:1/8
W:Cast off two Couple .| Cast up again :| Cross over
W:And turn .|. Lead through the 3d Cu. and Cast up :|
W:Foot it Corners and turn .|| Foot it the other
W:Corners and turn .||. Lead out each side &
W:turn your Partner :|
Q:3/8=90
K:A
c2d e2f | ecA fdB | c2d e2a | ecA B3 |
c2d e2f | ecA fdB | cde fed | B3 A3 :|
g2a bge | f2g afd | d2f eca | ecA B3 |
gbg bge | fag aec | def edc | B3 A3 :|
